X: 44
T: polka
C: trad (blowzabella)
M: 2/4
L: 1/8
R: polka
K: Cmaj
|:Gc cB/c/|dB cd/e/|fd ec|d/e/d/c/ BA|
|Gc cB/c/|dB cd/e/|fd ec|d/e/d/B/ cz:|
|:ef/g/ ef/g/|ed/c/ B>c|d/c/d/e/ f/e/d/c|AB AG|
|ef/g/ ef/g/|ed/c/ B>c|d/c/d/e/ f/e/d/c|AB cz:|
